_includes/icons/color-trial.svg

<svg fill="#666" height="50" viewBox="0 0 48 48" width="50" xmlns="http://www.w3.org/2000/svg"><path d="m31.398438 40h-2.699219l-.5 2h-2.199219l3.101563-10h1.796875l3.101562 10h-2.101562zm-2.296875-1.699219h1.898437l-1-3.601562zm7.898437 2h4v1.699219h-6v-10h2zm-23-6.601562h-2.5v8.300781h-2v-8.300781h-2.5v-1.699219h7zm11 8.300781h-2v-10h2zm-7-3.601562h-1v3.601562h-2v-10h3.199219c1 0 1.800781.300781 2.300781.800781s.800781 1.300782.800781 2.199219c0 1.300781-.5 2.199219-1.402343 2.800781l1.703125 4.097657v.101562h-2.203125zm-1-1.699219h1.101563c.398437 0 .699218-.097656.898437-.398438.199219-.300781.300781-.601562.300781-1.101562 0-1-.402343-1.5-1.199218-1.5h-1.101563z" fill="#ff6d00"/><path d="m41.101563 29h-34.203125c-1 0-1.898438-.800781-1.898438-1.898437v-19.203125c0-1.097657.800781-1.898438 1.898438-1.898438h34.300781c1 0 1.902344.800781 1.902344 1.898438v19.300781c-.101563 1-.902344 1.800781-2 1.800781z" fill="#ffc107"/><path d="m27 18v-12h-6v12h-5l8 8 8-8z" fill="#fff"/></svg>

<svg xmlns="http://www.w3.org/2000/svg" viewBox="0 0 48 48" width="50" height="50" fill="#666"><path d="M 31.398438 40 L 28.699219 40 L 28.199219 42 L 26 42 L 29.101563 32 L 30.898438 32 L 34 42 L 31.898438 42 Z M 29.101563 38.300781 L 31 38.300781 L 30 34.699219 Z M 37 40.300781 L 41 40.300781 L 41 42 L 35 42 L 35 32 L 37 32 Z M 14 33.699219 L 11.5 33.699219 L 11.5 42 L 9.5 42 L 9.5 33.699219 L 7 33.699219 L 7 32 L 14 32 Z M 25 42 L 23 42 L 23 32 L 25 32 Z M 18 38.398438 L 17 38.398438 L 17 42 L 15 42 L 15 32 L 18.199219 32 C 19.199219 32 20 32.300781 20.5 32.800781 C 21 33.300781 21.300781 34.101563 21.300781 35 C 21.300781 36.300781 20.800781 37.199219 19.898438 37.800781 L 21.601563 41.898438 L 21.601563 42 L 19.398438 42 Z M 17 36.699219 L 18.101563 36.699219 C 18.5 36.699219 18.800781 36.601563 19 36.300781 C 19.199219 36 19.300781 35.699219 19.300781 35.199219 C 19.300781 34.199219 18.898438 33.699219 18.101563 33.699219 L 17 33.699219 Z" fill="#ff6d00"/><path d="M 41.101563 29 L 6.898438 29 C 5.898438 29 5 28.199219 5 27.101563 L 5 7.898438 C 5 6.800781 5.800781 6 6.898438 6 L 41.199219 6 C 42.199219 6 43.101563 6.800781 43.101563 7.898438 L 43.101563 27.199219 C 43 28.199219 42.199219 29 41.101563 29 Z" fill="#ffc107"/><path d="M 27 18 L 27 6 L 21 6 L 21 18 L 16 18 L 24 26 L 32 18 Z" fill="#fff"/></svg>
